build/images/fb-icons/product.svg

<svg xmlns="http://www.w3.org/2000/svg" preserveAspectRatio="xMidYMid" width="24" height="20" viewBox="0 0 24 20"><defs><style>.cls-1{fill:#1e1e1e;opacity:.8;fill-rule:evenodd}</style></defs><path d="M21.911 17.005V-.018h2.111v17.023h-2.111zM20 .196l1.002-.183v13.992L20 13.785V.196zm.683 17.238v.948c0 .511-.134.908-.403 1.191-.268.283-.615.424-1.039.424-.136 0-.276-.014-.421-.042a1.732 1.732 0 0 1-.398-.126l.087-.519c.11.052.223.089.338.111.116.023.247.034.394.034a.697.697 0 0 0 .569-.268c.144-.178.217-.438.217-.78v-.186a.889.889 0 0 1-.743.378c-.376 0-.673-.122-.891-.366-.217-.244-.326-.578-.326-1.002 0-.404.122-.738.366-1.002s.546-.396.905-.396c.409 0 .735.137.979.412.244.276.366.672.366 1.189zm-.656-.081c0-.32-.059-.564-.176-.73a.58.58 0 0 0-.502-.248c-.177 0-.325.081-.445.243a1.008 1.008 0 0 0-.179.613c0 .252.055.455.164.61.11.155.262.232.457.232a.821.821 0 0 0 .42-.1.674.674 0 0 0 .261-.258v-.362zM15.013.013H18v13.992h-2.987V.013zm.644 17.846a.993.993 0 0 1-.442-.357.94.94 0 0 1-.16-.543c0-.36.11-.637.332-.833.221-.196.514-.293.877-.293.359 0 .652.097.877.293.225.196.337.473.337.833a.938.938 0 0 1-.162.542 1.044 1.044 0 0 1-.442.361c.215.085.386.213.513.384.128.17.192.367.192.589 0 .376-.121.664-.364.863-.242.199-.557.299-.946.299-.394 0-.712-.1-.954-.299-.242-.199-.363-.487-.363-.863a.97.97 0 0 1 .188-.589c.126-.171.298-.3.517-.387zm1.008-1.313a.516.516 0 0 0-.401-.171.515.515 0 0 0-.403.165.642.642 0 0 0-.147.443c0 .184.05.331.15.441.1.11.235.165.405.165.167 0 .3-.055.4-.165a.63.63 0 0 0 .151-.441.628.628 0 0 0-.155-.437zm-.876 2.734c.12.117.28.175.48.175a.65.65 0 0 0 .472-.176.638.638 0 0 0 .182-.479.653.653 0 0 0-.186-.483.644.644 0 0 0-.473-.185.631.631 0 0 0-.473.184.664.664 0 0 0-.181.484c0 .204.06.364.179.48zm-2.561-1.999c.37-.004.66.117.87.361.209.245.314.58.314 1.004 0 .396-.11.721-.331.973-.22.252-.539.378-.956.378-.347 0-.641-.098-.88-.293-.24-.196-.355-.473-.346-.833l.006-.014.615-.022c0 .195.056.348.168.456a.601.601 0 0 0 .437.164c.204 0 .36-.074.467-.221.108-.147.162-.342.162-.585 0-.245-.056-.444-.166-.597a.545.545 0 0 0-.472-.229c-.18 0-.314.03-.402.091a.513.513 0 0 0-.191.262l-.567-.047.228-2.238h2.085v.584h-1.538l-.119 1.014c.078-.059.168-.107.27-.146a1.11 1.11 0 0 1 .346-.062zM10.237-.018h1.504v14.023h-1.504V-.018zm1.012 17.471v.926c0 .526-.116.928-.347 1.204-.232.276-.546.414-.944.414-.399 0-.716-.138-.949-.414-.233-.276-.349-.678-.349-1.204v-.926c0-.524.115-.925.347-1.203.231-.278.546-.417.946-.417.397 0 .713.139.946.417.233.278.35.679.35 1.203zm-.659-.103c0-.332-.055-.577-.163-.736a.535.535 0 0 0-.474-.239.532.532 0 0 0-.473.239c-.108.159-.162.404-.162.736v1.124c0 .334.055.58.164.741.11.16.268.24.476.24.208 0 .365-.08.472-.239.106-.159.16-.407.16-.742V17.35zM8 .196L9.002.013v13.992L8 13.785V.196zm-.177 17.466a5.59 5.59 0 0 1-.592.77l-.878.948.008.016h1.778v.543H5.517v-.467l1.286-1.435c.209-.235.354-.428.433-.58a.94.94 0 0 0 .12-.443.685.685 0 0 0-.155-.456.518.518 0 0 0-.417-.183c-.232 0-.404.066-.515.2-.113.133-.169.317-.169.55h-.637l-.005-.016c-.009-.36.106-.662.344-.908.239-.245.566-.368.982-.368.379 0 .679.107.9.322.22.215.33.496.33.842 0 .232-.063.454-.191.665zM4 .196L6.005.013v13.992L4 13.785V.196zm.013 19.743h-.659v-3.406h-.802v-.497l1.461-.145v4.048zM-.01-.018h2.063v17.023H-.01V-.018z" class="cls-1"/></svg>

<svg xmlns="http://www.w3.org/2000/svg" xmlns:xlink="http://www.w3.org/1999/xlink" preserveAspectRatio="xMidYMid" width="24" height="20" viewBox="0 0 24 20">
  <defs>
    <style>
      .cls-1 {
        fill: #1e1e1e;
        opacity: 0.8;
        fill-rule: evenodd;
      }
    </style>
  </defs>
  <path d="M21.911,17.005 L21.911,-0.018 L24.022,-0.018 L24.022,17.005 L21.911,17.005 ZM20.000,0.196 L21.002,0.013 L21.002,14.005 L20.000,13.785 L20.000,0.196 ZM20.683,17.434 L20.683,18.382 C20.683,18.893 20.549,19.290 20.280,19.573 C20.012,19.856 19.665,19.997 19.241,19.997 C19.105,19.997 18.965,19.983 18.820,19.955 C18.676,19.927 18.543,19.885 18.422,19.829 L18.509,19.310 C18.619,19.362 18.732,19.399 18.847,19.421 C18.963,19.444 19.094,19.455 19.241,19.455 C19.475,19.455 19.665,19.366 19.810,19.187 C19.954,19.009 20.027,18.749 20.027,18.407 L20.027,18.221 C19.938,18.345 19.830,18.439 19.703,18.503 C19.575,18.567 19.436,18.599 19.284,18.599 C18.908,18.599 18.611,18.477 18.393,18.233 C18.176,17.989 18.067,17.655 18.067,17.231 C18.067,16.827 18.189,16.493 18.433,16.229 C18.677,15.965 18.979,15.833 19.338,15.833 C19.747,15.833 20.073,15.970 20.317,16.245 C20.561,16.521 20.683,16.917 20.683,17.434 ZM20.027,17.353 C20.027,17.033 19.968,16.789 19.851,16.623 C19.733,16.458 19.566,16.375 19.349,16.375 C19.172,16.375 19.024,16.456 18.904,16.618 C18.785,16.780 18.725,16.984 18.725,17.231 C18.725,17.483 18.780,17.686 18.889,17.841 C18.999,17.996 19.151,18.073 19.346,18.073 C19.511,18.073 19.651,18.040 19.766,17.973 C19.882,17.906 19.969,17.820 20.027,17.715 L20.027,17.353 ZM15.013,0.013 L18.000,0.013 L18.000,14.005 L15.013,14.005 L15.013,0.013 ZM15.657,17.859 C15.469,17.778 15.321,17.659 15.215,17.502 C15.108,17.345 15.055,17.164 15.055,16.959 C15.055,16.599 15.165,16.322 15.387,16.126 C15.608,15.930 15.901,15.833 16.264,15.833 C16.623,15.833 16.916,15.930 17.141,16.126 C17.366,16.322 17.478,16.599 17.478,16.959 C17.478,17.162 17.424,17.343 17.316,17.501 C17.207,17.658 17.060,17.779 16.874,17.862 C17.089,17.947 17.260,18.075 17.387,18.246 C17.515,18.416 17.579,18.613 17.579,18.835 C17.579,19.211 17.458,19.499 17.215,19.698 C16.973,19.897 16.658,19.997 16.269,19.997 C15.875,19.997 15.557,19.897 15.315,19.698 C15.073,19.499 14.952,19.211 14.952,18.835 C14.952,18.613 15.015,18.416 15.140,18.246 C15.266,18.075 15.438,17.946 15.657,17.859 ZM16.665,16.546 C16.562,16.432 16.428,16.375 16.264,16.375 C16.094,16.375 15.960,16.430 15.861,16.540 C15.763,16.650 15.714,16.798 15.714,16.983 C15.714,17.167 15.764,17.314 15.864,17.424 C15.964,17.534 16.099,17.589 16.269,17.589 C16.436,17.589 16.569,17.534 16.669,17.424 C16.769,17.314 16.820,17.167 16.820,16.983 C16.820,16.806 16.768,16.660 16.665,16.546 ZM15.789,19.280 C15.909,19.397 16.069,19.455 16.269,19.455 C16.463,19.455 16.620,19.396 16.741,19.279 C16.862,19.161 16.923,19.002 16.923,18.800 C16.923,18.602 16.861,18.441 16.737,18.317 C16.613,18.194 16.455,18.132 16.264,18.132 C16.069,18.132 15.911,18.193 15.791,18.316 C15.671,18.439 15.610,18.600 15.610,18.800 C15.610,19.004 15.670,19.164 15.789,19.280 ZM13.228,17.281 C13.598,17.277 13.888,17.398 14.098,17.642 C14.307,17.887 14.412,18.222 14.412,18.646 C14.412,19.042 14.302,19.367 14.081,19.619 C13.861,19.871 13.542,19.997 13.125,19.997 C12.778,19.997 12.484,19.899 12.245,19.704 C12.005,19.508 11.890,19.231 11.899,18.871 L11.905,18.857 L12.520,18.835 C12.520,19.030 12.576,19.183 12.688,19.291 C12.800,19.400 12.946,19.455 13.125,19.455 C13.329,19.455 13.485,19.381 13.592,19.234 C13.700,19.087 13.754,18.892 13.754,18.649 C13.754,18.404 13.698,18.205 13.588,18.052 C13.478,17.899 13.321,17.823 13.116,17.823 C12.936,17.823 12.802,17.853 12.714,17.914 C12.626,17.975 12.563,18.062 12.523,18.176 L11.956,18.129 L12.184,15.891 L14.269,15.891 L14.269,16.475 L12.731,16.475 L12.612,17.489 C12.690,17.430 12.780,17.382 12.882,17.343 C12.984,17.306 13.099,17.285 13.228,17.281 ZM10.237,-0.018 L11.741,-0.018 L11.741,14.005 L10.237,14.005 L10.237,-0.018 ZM11.249,17.453 L11.249,18.379 C11.249,18.905 11.133,19.307 10.902,19.583 C10.670,19.859 10.356,19.997 9.958,19.997 C9.559,19.997 9.242,19.859 9.009,19.583 C8.776,19.307 8.660,18.905 8.660,18.379 L8.660,17.453 C8.660,16.929 8.775,16.528 9.007,16.250 C9.238,15.972 9.553,15.833 9.953,15.833 C10.350,15.833 10.666,15.972 10.899,16.250 C11.132,16.528 11.249,16.929 11.249,17.453 ZM10.590,17.350 C10.590,17.018 10.535,16.773 10.427,16.614 C10.319,16.454 10.161,16.375 9.953,16.375 C9.745,16.375 9.587,16.454 9.480,16.614 C9.372,16.773 9.318,17.018 9.318,17.350 L9.318,18.474 C9.318,18.808 9.373,19.054 9.482,19.215 C9.592,19.375 9.750,19.455 9.958,19.455 C10.166,19.455 10.323,19.375 10.430,19.216 C10.536,19.057 10.590,18.809 10.590,18.474 L10.590,17.350 ZM8.000,0.196 L9.002,0.013 L9.002,14.005 L8.000,13.785 L8.000,0.196 ZM7.823,17.662 C7.696,17.873 7.498,18.130 7.231,18.432 L6.353,19.380 L6.361,19.396 L8.139,19.396 L8.139,19.939 L5.517,19.939 L5.517,19.472 L6.803,18.037 C7.012,17.802 7.157,17.609 7.236,17.457 C7.316,17.306 7.356,17.159 7.356,17.014 C7.356,16.832 7.304,16.681 7.201,16.558 C7.098,16.436 6.959,16.375 6.784,16.375 C6.552,16.375 6.380,16.441 6.269,16.575 C6.156,16.708 6.100,16.892 6.100,17.125 L5.463,17.125 L5.458,17.109 C5.449,16.749 5.564,16.447 5.802,16.201 C6.041,15.956 6.368,15.833 6.784,15.833 C7.163,15.833 7.463,15.940 7.684,16.155 C7.904,16.370 8.014,16.651 8.014,16.997 C8.014,17.229 7.951,17.451 7.823,17.662 ZM4.000,0.196 L6.005,0.013 L6.005,14.005 L4.000,13.785 L4.000,0.196 ZM4.013,19.939 L3.354,19.939 L3.354,16.533 L2.552,16.533 L2.552,16.036 L4.013,15.891 L4.013,19.939 ZM-0.010,-0.018 L2.053,-0.018 L2.053,17.005 L-0.010,17.005 L-0.010,-0.018 Z" class="cls-1"/>
</svg>
